report_00007_2020-12-11T15:55:29.892Z/total-byte-weight/samples/pages+cached+noexternal+nosvg/raw/sorted.svg

<svg width="640" height="490" xmlns="http://www.w3.org/2000/svg" xmlns:xlink="http://www.w3.org/1999/xlink"><path fill="#fff" d="M0 0h640v490H0z"/><defs><path id="d" stroke-width=".222" stroke="currentColor" d="M-1-1h2v2h-2z"/><path id="b" stroke-width=".222" stroke="currentColor" d="M0-1.33l-1.33 2h2.66z"/><path id="f" stroke-width=".222" stroke="currentColor" d="M0 1.33L1.265.411.782-1.067l-1.564-.009-.483 1.487z"/><use xlink:href="#b" id="c" stroke="currentColor" transform="rotate(180)"/><use xlink:href="#d" id="e" stroke="currentColor" transform="rotate(45)"/><circle id="a" stroke-width=".222" stroke="currentColor" cx="0" cy="0" r="1"/></defs><g fill="none" color="#000" stroke="currentColor"><path stroke="#000" d="M112 418.3h9m494 0h-9"/><text transform="translate(103.7 422.2)" stroke="none" fill="#000" font-family="Arial" font-size="12" text-anchor="end"><tspan>6.5916x10</tspan><tspan font-size="9.6" dy="-6">6</tspan></text></g><g fill="none" color="#000" stroke="currentColor"><path stroke="#000" d="M112 378.3h9m494 0h-9"/><text transform="translate(103.7 382.2)" stroke="none" fill="#000" font-family="Arial" font-size="12" text-anchor="end"><tspan>6.5916x10</tspan><tspan font-size="9.6" dy="-6">6</tspan></text></g><g fill="none" color="#000" stroke="currentColor"><path stroke="#000" d="M112 338.2h9m494 0h-9"/><text transform="translate(103.7 342.1)" stroke="none" fill="#000" font-family="Arial" font-size="12" text-anchor="end"><tspan>6.5916x10</tspan><tspan font-size="9.6" dy="-6">6</tspan></text></g><g fill="none" color="#000" stroke="currentColor"><path stroke="#000" d="M112 298.2h9m494 0h-9"/><text transform="translate(103.7 302.1)" stroke="none" fill="#000" font-family="Arial" font-size="12" text-anchor="end"><tspan>6.59161x10</tspan><tspan font-size="9.6" dy="-6">6</tspan></text></g><g fill="none" color="#000" stroke="currentColor"><path stroke="#000" d="M112 258.1h9m494 0h-9"/><text transform="translate(103.7 262)" stroke="none" fill="#000" font-family="Arial" font-size="12" text-anchor="end"><tspan>6.59162x10</tspan><tspan font-size="9.6" dy="-6">6</tspan></text></g><g fill="none" color="#000" stroke="currentColor"><path stroke="#000" d="M112 218h9m494 0h-9"/><text transform="translate(103.7 221.9)" stroke="none" fill="#000" font-family="Arial" font-size="12" text-anchor="end"><tspan>6.59162x10</tspan><tspan font-size="9.6" dy="-6">6</tspan></text></g><g fill="none" color="#000" stroke="currentColor"><path stroke="#000" d="M112 178h9m494 0h-9"/><text transform="translate(103.7 181.9)" stroke="none" fill="#000" font-family="Arial" font-size="12" text-anchor="end"><tspan>6.59162x10</tspan><tspan font-size="9.6" dy="-6">6</tspan></text></g><g fill="none" color="#000" stroke="currentColor"><path stroke="#000" d="M112 137.9h9m494 0h-9"/><text transform="translate(103.7 141.8)" stroke="none" fill="#000" font-family="Arial" font-size="12" text-anchor="end"><tspan>6.59163x10</tspan><tspan font-size="9.6" dy="-6">6</tspan></text></g><g fill="none" color="#000" stroke="currentColor"><path stroke="#000" d="M112 97.9h9m494 0h-9"/><text transform="translate(103.7 101.8)" stroke="none" fill="#000" font-family="Arial" font-size="12" text-anchor="end"><tspan>6.59164x10</tspan><tspan font-size="9.6" dy="-6">6</tspan></text></g><g fill="none" color="#000" stroke="currentColor"><path stroke="#000" d="M112 57.8h9m494 0h-9"/><text transform="translate(103.7 61.7)" stroke="none" fill="#000" font-family="Arial" font-size="12" text-anchor="end"><tspan>6.59164x10</tspan><tspan font-size="9.6" dy="-6">6</tspan></text></g><g fill="none" color="#000" stroke="currentColor"><path stroke="#000" d="M112 17.8h9m494 0h-9"/><text transform="translate(103.7 21.7)" stroke="none" fill="#000" font-family="Arial" font-size="12" text-anchor="end"><tspan>6.59164x10</tspan><tspan font-size="9.6" dy="-6">6</tspan></text></g><g fill="none" color="#000" stroke="currentColor"><path stroke="#000" d="M112 418v-9m0-390.9v9"/><text transform="translate(112 439.9)" stroke="none" fill="#000" font-family="Arial" font-size="12" text-anchor="middle"><tspan>0</tspan></text></g><g fill="none" color="#000" stroke="currentColor"><path stroke="#000" d="M162.8 418v-9m0-390.9v9"/><text transform="translate(162.8 439.9)" stroke="none" fill="#000" font-family="Arial" font-size="12" text-anchor="middle"><tspan>10</tspan></text></g><g fill="none" color="#000" stroke="currentColor"><path stroke="#000" d="M213.6 418v-9m0-390.9v9"/><text transform="translate(213.6 439.9)" stroke="none" fill="#000" font-family="Arial" font-size="12" text-anchor="middle"><tspan>20</tspan></text></g><g fill="none" color="#000" stroke="currentColor"><path stroke="#000" d="M264.4 418v-9m0-390.9v9"/><text transform="translate(264.4 439.9)" stroke="none" fill="#000" font-family="Arial" font-size="12" text-anchor="middle"><tspan>30</tspan></text></g><g fill="none" color="#000" stroke="currentColor"><path stroke="#000" d="M315.2 418v-9m0-390.9v9"/><text transform="translate(315.2 439.9)" stroke="none" fill="#000" font-family="Arial" font-size="12" text-anchor="middle"><tspan>40</tspan></text></g><g fill="none" color="#000" stroke="currentColor"><path stroke="#000" d="M366 418v-9m0-390.9v9"/><text transform="translate(366 439.9)" stroke="none" fill="#000" font-family="Arial" font-size="12" text-anchor="middle"><tspan>50</tspan></text></g><g fill="none" color="#000" stroke="currentColor"><path stroke="#000" d="M416.8 418v-9m0-390.9v9"/><text transform="translate(416.8 439.9)" stroke="none" fill="#000" font-family="Arial" font-size="12" text-anchor="middle"><tspan>60</tspan></text></g><g fill="none" color="#000" stroke="currentColor"><path stroke="#000" d="M467.7 418v-9m0-390.9v9"/><text transform="translate(467.7 439.9)" stroke="none" fill="#000" font-family="Arial" font-size="12" text-anchor="middle"><tspan>70</tspan></text></g><g fill="none" color="#000" stroke="currentColor"><path stroke="#000" d="M518.5 418v-9m0-390.9v9"/><text transform="translate(518.5 439.9)" stroke="none" fill="#000" font-family="Arial" font-size="12" text-anchor="middle"><tspan>80</tspan></text></g><g fill="none" color="#000" stroke="currentColor"><path stroke="#000" d="M569.3 418v-9m0-390.9v9"/><text transform="translate(569.3 439.9)" stroke="none" fill="#000" font-family="Arial" font-size="12" text-anchor="middle"><tspan>90</tspan></text></g><path stroke="#000" d="M112 18.1V418h503V18.1H112z" fill="none" color="#000"/><text transform="translate(304.7 457.9)" stroke="none" fill="#000" font-family="Arial" font-size="12" text-anchor="end" color="#000"><tspan>raw</tspan></text><path stroke="#9400D3" d="M313 454h42.2M112 410.3l5.1-8 5.1-64.1h5l5.1-16h10.2l5.1-8h5l5.1-16h5.1l5.1-16.1h5.1l5.1-16 5-8h10.2l5.1-8h25.4l5.1-8H239l5.1-8H264.4l5.1-8 5.1-8.1h15.2l5.1-8H310.2l5-8H330.5l5.1-8H366l5.1-8h10.2l5.1-8 5-8h5.1l5.1-8h10.2l5-8H427l5.1-8h30.5l5.1-8.1h25.4l5-8H513.4l5.1-8h10.1l5.1-8h10.2l5-8 5.1-8h25.4l5.1-8h5.1l5.1-8h10.1l5.1-24.1 5.1-32" fill="none" color="#000"/><text transform="translate(304.7 475.9)" stroke="none" fill="#000" font-family="Arial" font-size="12" text-anchor="end" color="#000"><tspan>score p10=2731008</tspan></text><path stroke="#009E73" d="M313 472h42.2" fill="none" color="#000"/><text transform="translate(529.5 457.9)" stroke="none" fill="#000" font-family="Arial" font-size="12" text-anchor="end" color="#000"><tspan>score median=4096000</tspan></text><path stroke="#56B4E9" d="M537.8 454H580" fill="none" color="#000"/><g fill="none" color="#000" stroke="currentColor"><path stroke="#000" d="M112 18.1V418h503V18.1H112z"/></g></svg>

<?xml version="1.0" encoding="utf-8"  standalone="no"?>
<svg 
 width="640" height="490"
 viewBox="0 0 640 490"
 xmlns="http://www.w3.org/2000/svg"
 xmlns:xlink="http://www.w3.org/1999/xlink"
>

<title>Gnuplot</title>
<desc>Produced by GNUPLOT 5.4 patchlevel 0 </desc>

<g id="gnuplot_canvas">

<rect x="0" y="0" width="640" height="490" fill="#ffffff"/>
<defs>

	<circle id='gpDot' r='0.5' stroke-width='0.5' stroke='currentColor'/>
	<path id='gpPt0' stroke-width='0.222' stroke='currentColor' d='M-1,0 h2 M0,-1 v2'/>
	<path id='gpPt1' stroke-width='0.222' stroke='currentColor' d='M-1,-1 L1,1 M1,-1 L-1,1'/>
	<path id='gpPt2' stroke-width='0.222' stroke='currentColor' d='M-1,0 L1,0 M0,-1 L0,1 M-1,-1 L1,1 M-1,1 L1,-1'/>
	<rect id='gpPt3' stroke-width='0.222' stroke='currentColor' x='-1' y='-1' width='2' height='2'/>
	<rect id='gpPt4' stroke-width='0.222' stroke='currentColor' fill='currentColor' x='-1' y='-1' width='2' height='2'/>
	<circle id='gpPt5' stroke-width='0.222' stroke='currentColor' cx='0' cy='0' r='1'/>
	<use xlink:href='#gpPt5' id='gpPt6' fill='currentColor' stroke='none'/>
	<path id='gpPt7' stroke-width='0.222' stroke='currentColor' d='M0,-1.33 L-1.33,0.67 L1.33,0.67 z'/>
	<use xlink:href='#gpPt7' id='gpPt8' fill='currentColor' stroke='none'/>
	<use xlink:href='#gpPt7' id='gpPt9' stroke='currentColor' transform='rotate(180)'/>
	<use xlink:href='#gpPt9' id='gpPt10' fill='currentColor' stroke='none'/>
	<use xlink:href='#gpPt3' id='gpPt11' stroke='currentColor' transform='rotate(45)'/>
	<use xlink:href='#gpPt11' id='gpPt12' fill='currentColor' stroke='none'/>
	<path id='gpPt13' stroke-width='0.222' stroke='currentColor' d='M0,1.330 L1.265,0.411 L0.782,-1.067 L-0.782,-1.076 L-1.265,0.411 z'/>
	<use xlink:href='#gpPt13' id='gpPt14' fill='currentColor' stroke='none'/>
	<filter id='textbox' filterUnits='objectBoundingBox' x='0' y='0' height='1' width='1'>
	  <feFlood flood-color='#FFFFFF' flood-opacity='1' result='bgnd'/>
	  <feComposite in='SourceGraphic' in2='bgnd' operator='atop'/>
	</filter>
	<filter id='greybox' filterUnits='objectBoundingBox' x='0' y='0' height='1' width='1'>
	  <feFlood flood-color='lightgrey' flood-opacity='1' result='grey'/>
	  <feComposite in='SourceGraphic' in2='grey' operator='atop'/>
	</filter>
</defs>
<g fill="none" color="#FFFFFF" stroke="black" stroke-width="1.00" stroke-linecap="butt" stroke-linejoin="miter">
</g>
<g fill="none" color="black" stroke="currentColor" stroke-width="1.00" stroke-linecap="butt" stroke-linejoin="miter">
	<path stroke='black'  d='M112.0,418.3 L121.0,418.3 M615.0,418.3 L606.0,418.3  '/>	<g transform="translate(103.7,422.2)" stroke="none" fill="black" font-family="Arial" font-size="12.00"  text-anchor="end">
		<text><tspan font-family="Arial" > 6.5916x10</tspan><tspan font-family="Arial"  font-size="9.6" dy="-6.00px">6</tspan><tspan font-size="12.0" dy="6.00"></tspan></text>
	</g>
</g>
<g fill="none" color="black" stroke="currentColor" stroke-width="1.00" stroke-linecap="butt" stroke-linejoin="miter">
	<path stroke='black'  d='M112.0,378.3 L121.0,378.3 M615.0,378.3 L606.0,378.3  '/>	<g transform="translate(103.7,382.2)" stroke="none" fill="black" font-family="Arial" font-size="12.00"  text-anchor="end">
		<text><tspan font-family="Arial" > 6.5916x10</tspan><tspan font-family="Arial"  font-size="9.6" dy="-6.00px">6</tspan><tspan font-size="12.0" dy="6.00"></tspan></text>
	</g>
</g>
<g fill="none" color="black" stroke="currentColor" stroke-width="1.00" stroke-linecap="butt" stroke-linejoin="miter">
	<path stroke='black'  d='M112.0,338.2 L121.0,338.2 M615.0,338.2 L606.0,338.2  '/>	<g transform="translate(103.7,342.1)" stroke="none" fill="black" font-family="Arial" font-size="12.00"  text-anchor="end">
		<text><tspan font-family="Arial" > 6.5916x10</tspan><tspan font-family="Arial"  font-size="9.6" dy="-6.00px">6</tspan><tspan font-size="12.0" dy="6.00"></tspan></text>
	</g>
</g>
<g fill="none" color="black" stroke="currentColor" stroke-width="1.00" stroke-linecap="butt" stroke-linejoin="miter">
	<path stroke='black'  d='M112.0,298.2 L121.0,298.2 M615.0,298.2 L606.0,298.2  '/>	<g transform="translate(103.7,302.1)" stroke="none" fill="black" font-family="Arial" font-size="12.00"  text-anchor="end">
		<text><tspan font-family="Arial" > 6.59161x10</tspan><tspan font-family="Arial"  font-size="9.6" dy="-6.00px">6</tspan><tspan font-size="12.0" dy="6.00"></tspan></text>
	</g>
</g>
<g fill="none" color="black" stroke="currentColor" stroke-width="1.00" stroke-linecap="butt" stroke-linejoin="miter">
	<path stroke='black'  d='M112.0,258.1 L121.0,258.1 M615.0,258.1 L606.0,258.1  '/>	<g transform="translate(103.7,262.0)" stroke="none" fill="black" font-family="Arial" font-size="12.00"  text-anchor="end">
		<text><tspan font-family="Arial" > 6.59162x10</tspan><tspan font-family="Arial"  font-size="9.6" dy="-6.00px">6</tspan><tspan font-size="12.0" dy="6.00"></tspan></text>
	</g>
</g>
<g fill="none" color="black" stroke="currentColor" stroke-width="1.00" stroke-linecap="butt" stroke-linejoin="miter">
	<path stroke='black'  d='M112.0,218.0 L121.0,218.0 M615.0,218.0 L606.0,218.0  '/>	<g transform="translate(103.7,221.9)" stroke="none" fill="black" font-family="Arial" font-size="12.00"  text-anchor="end">
		<text><tspan font-family="Arial" > 6.59162x10</tspan><tspan font-family="Arial"  font-size="9.6" dy="-6.00px">6</tspan><tspan font-size="12.0" dy="6.00"></tspan></text>
	</g>
</g>
<g fill="none" color="black" stroke="currentColor" stroke-width="1.00" stroke-linecap="butt" stroke-linejoin="miter">
	<path stroke='black'  d='M112.0,178.0 L121.0,178.0 M615.0,178.0 L606.0,178.0  '/>	<g transform="translate(103.7,181.9)" stroke="none" fill="black" font-family="Arial" font-size="12.00"  text-anchor="end">
		<text><tspan font-family="Arial" > 6.59162x10</tspan><tspan font-family="Arial"  font-size="9.6" dy="-6.00px">6</tspan><tspan font-size="12.0" dy="6.00"></tspan></text>
	</g>
</g>
<g fill="none" color="black" stroke="currentColor" stroke-width="1.00" stroke-linecap="butt" stroke-linejoin="miter">
	<path stroke='black'  d='M112.0,137.9 L121.0,137.9 M615.0,137.9 L606.0,137.9  '/>	<g transform="translate(103.7,141.8)" stroke="none" fill="black" font-family="Arial" font-size="12.00"  text-anchor="end">
		<text><tspan font-family="Arial" > 6.59163x10</tspan><tspan font-family="Arial"  font-size="9.6" dy="-6.00px">6</tspan><tspan font-size="12.0" dy="6.00"></tspan></text>
	</g>
</g>
<g fill="none" color="black" stroke="currentColor" stroke-width="1.00" stroke-linecap="butt" stroke-linejoin="miter">
	<path stroke='black'  d='M112.0,97.9 L121.0,97.9 M615.0,97.9 L606.0,97.9  '/>	<g transform="translate(103.7,101.8)" stroke="none" fill="black" font-family="Arial" font-size="12.00"  text-anchor="end">
		<text><tspan font-family="Arial" > 6.59164x10</tspan><tspan font-family="Arial"  font-size="9.6" dy="-6.00px">6</tspan><tspan font-size="12.0" dy="6.00"></tspan></text>
	</g>
</g>
<g fill="none" color="black" stroke="currentColor" stroke-width="1.00" stroke-linecap="butt" stroke-linejoin="miter">
	<path stroke='black'  d='M112.0,57.8 L121.0,57.8 M615.0,57.8 L606.0,57.8  '/>	<g transform="translate(103.7,61.7)" stroke="none" fill="black" font-family="Arial" font-size="12.00"  text-anchor="end">
		<text><tspan font-family="Arial" > 6.59164x10</tspan><tspan font-family="Arial"  font-size="9.6" dy="-6.00px">6</tspan><tspan font-size="12.0" dy="6.00"></tspan></text>
	</g>
</g>
<g fill="none" color="black" stroke="currentColor" stroke-width="1.00" stroke-linecap="butt" stroke-linejoin="miter">
	<path stroke='black'  d='M112.0,17.8 L121.0,17.8 M615.0,17.8 L606.0,17.8  '/>	<g transform="translate(103.7,21.7)" stroke="none" fill="black" font-family="Arial" font-size="12.00"  text-anchor="end">
		<text><tspan font-family="Arial" > 6.59164x10</tspan><tspan font-family="Arial"  font-size="9.6" dy="-6.00px">6</tspan><tspan font-size="12.0" dy="6.00"></tspan></text>
	</g>
</g>
<g fill="none" color="black" stroke="currentColor" stroke-width="1.00" stroke-linecap="butt" stroke-linejoin="miter">
	<path stroke='black'  d='M112.0,418.0 L112.0,409.0 M112.0,18.1 L112.0,27.1  '/>	<g transform="translate(112.0,439.9)" stroke="none" fill="black" font-family="Arial" font-size="12.00"  text-anchor="middle">
		<text><tspan font-family="Arial" > 0</tspan></text>
	</g>
</g>
<g fill="none" color="black" stroke="currentColor" stroke-width="1.00" stroke-linecap="butt" stroke-linejoin="miter">
	<path stroke='black'  d='M162.8,418.0 L162.8,409.0 M162.8,18.1 L162.8,27.1  '/>	<g transform="translate(162.8,439.9)" stroke="none" fill="black" font-family="Arial" font-size="12.00"  text-anchor="middle">
		<text><tspan font-family="Arial" > 10</tspan></text>
	</g>
</g>
<g fill="none" color="black" stroke="currentColor" stroke-width="1.00" stroke-linecap="butt" stroke-linejoin="miter">
	<path stroke='black'  d='M213.6,418.0 L213.6,409.0 M213.6,18.1 L213.6,27.1  '/>	<g transform="translate(213.6,439.9)" stroke="none" fill="black" font-family="Arial" font-size="12.00"  text-anchor="middle">
		<text><tspan font-family="Arial" > 20</tspan></text>
	</g>
</g>
<g fill="none" color="black" stroke="currentColor" stroke-width="1.00" stroke-linecap="butt" stroke-linejoin="miter">
	<path stroke='black'  d='M264.4,418.0 L264.4,409.0 M264.4,18.1 L264.4,27.1  '/>	<g transform="translate(264.4,439.9)" stroke="none" fill="black" font-family="Arial" font-size="12.00"  text-anchor="middle">
		<text><tspan font-family="Arial" > 30</tspan></text>
	</g>
</g>
<g fill="none" color="black" stroke="currentColor" stroke-width="1.00" stroke-linecap="butt" stroke-linejoin="miter">
	<path stroke='black'  d='M315.2,418.0 L315.2,409.0 M315.2,18.1 L315.2,27.1  '/>	<g transform="translate(315.2,439.9)" stroke="none" fill="black" font-family="Arial" font-size="12.00"  text-anchor="middle">
		<text><tspan font-family="Arial" > 40</tspan></text>
	</g>
</g>
<g fill="none" color="black" stroke="currentColor" stroke-width="1.00" stroke-linecap="butt" stroke-linejoin="miter">
	<path stroke='black'  d='M366.0,418.0 L366.0,409.0 M366.0,18.1 L366.0,27.1  '/>	<g transform="translate(366.0,439.9)" stroke="none" fill="black" font-family="Arial" font-size="12.00"  text-anchor="middle">
		<text><tspan font-family="Arial" > 50</tspan></text>
	</g>
</g>
<g fill="none" color="black" stroke="currentColor" stroke-width="1.00" stroke-linecap="butt" stroke-linejoin="miter">
	<path stroke='black'  d='M416.8,418.0 L416.8,409.0 M416.8,18.1 L416.8,27.1  '/>	<g transform="translate(416.8,439.9)" stroke="none" fill="black" font-family="Arial" font-size="12.00"  text-anchor="middle">
		<text><tspan font-family="Arial" > 60</tspan></text>
	</g>
</g>
<g fill="none" color="black" stroke="currentColor" stroke-width="1.00" stroke-linecap="butt" stroke-linejoin="miter">
	<path stroke='black'  d='M467.7,418.0 L467.7,409.0 M467.7,18.1 L467.7,27.1  '/>	<g transform="translate(467.7,439.9)" stroke="none" fill="black" font-family="Arial" font-size="12.00"  text-anchor="middle">
		<text><tspan font-family="Arial" > 70</tspan></text>
	</g>
</g>
<g fill="none" color="black" stroke="currentColor" stroke-width="1.00" stroke-linecap="butt" stroke-linejoin="miter">
	<path stroke='black'  d='M518.5,418.0 L518.5,409.0 M518.5,18.1 L518.5,27.1  '/>	<g transform="translate(518.5,439.9)" stroke="none" fill="black" font-family="Arial" font-size="12.00"  text-anchor="middle">
		<text><tspan font-family="Arial" > 80</tspan></text>
	</g>
</g>
<g fill="none" color="black" stroke="currentColor" stroke-width="1.00" stroke-linecap="butt" stroke-linejoin="miter">
	<path stroke='black'  d='M569.3,418.0 L569.3,409.0 M569.3,18.1 L569.3,27.1  '/>	<g transform="translate(569.3,439.9)" stroke="none" fill="black" font-family="Arial" font-size="12.00"  text-anchor="middle">
		<text><tspan font-family="Arial" > 90</tspan></text>
	</g>
</g>
<g fill="none" color="black" stroke="currentColor" stroke-width="1.00" stroke-linecap="butt" stroke-linejoin="miter">
</g>
<g fill="none" color="black" stroke="currentColor" stroke-width="1.00" stroke-linecap="butt" stroke-linejoin="miter">
	<path stroke='black'  d='M112.0,18.1 L112.0,418.0 L615.0,418.0 L615.0,18.1 L112.0,18.1 Z  '/></g>
<g fill="none" color="black" stroke="currentColor" stroke-width="1.00" stroke-linecap="butt" stroke-linejoin="miter">
</g>
	<g id="gnuplot_plot_1" ><title>raw</title>
<g fill="none" color="black" stroke="currentColor" stroke-width="1.00" stroke-linecap="butt" stroke-linejoin="miter">
	<g transform="translate(304.7,457.9)" stroke="none" fill="black" font-family="Arial" font-size="12.00"  text-anchor="end">
		<text><tspan font-family="Arial" >raw</tspan></text>
	</g>
</g>
<g fill="none" color="black" stroke="currentColor" stroke-width="1.00" stroke-linecap="butt" stroke-linejoin="miter">
	<path stroke='rgb(148,   0, 211)'  d='M313.0,454.0 L355.2,454.0 M112.0,410.3 L117.1,402.3 L122.2,338.2 L127.2,338.2 L132.3,322.2 L137.4,322.2
		L142.5,322.2 L147.6,314.2 L152.6,314.2 L157.7,298.2 L162.8,298.2 L167.9,282.1 L173.0,282.1 L178.1,266.1
		L183.1,258.1 L188.2,258.1 L193.3,258.1 L198.4,250.1 L203.5,250.1 L208.5,250.1 L213.6,250.1 L218.7,250.1
		L223.8,250.1 L228.9,242.1 L233.9,242.1 L239.0,242.1 L244.1,234.1 L249.2,234.1 L254.3,234.1 L259.3,234.1
		L264.4,234.1 L269.5,226.1 L274.6,218.0 L279.7,218.0 L284.7,218.0 L289.8,218.0 L294.9,210.0 L300.0,210.0
		L305.1,210.0 L310.2,210.0 L315.2,202.0 L320.3,202.0 L325.4,202.0 L330.5,202.0 L335.6,194.0 L340.6,194.0
		L345.7,194.0 L350.8,194.0 L355.9,194.0 L361.0,194.0 L366.0,194.0 L371.1,186.0 L376.2,186.0 L381.3,186.0
		L386.4,178.0 L391.4,170.0 L396.5,170.0 L401.6,162.0 L406.7,162.0 L411.8,162.0 L416.8,154.0 L421.9,154.0
		L427.0,154.0 L432.1,146.0 L437.2,146.0 L442.3,146.0 L447.3,146.0 L452.4,146.0 L457.5,146.0 L462.6,146.0
		L467.7,137.9 L472.7,137.9 L477.8,137.9 L482.9,137.9 L488.0,137.9 L493.1,137.9 L498.1,129.9 L503.2,129.9
		L508.3,129.9 L513.4,129.9 L518.5,121.9 L523.5,121.9 L528.6,121.9 L533.7,113.9 L538.8,113.9 L543.9,113.9
		L548.9,105.9 L554.0,97.9 L559.1,97.9 L564.2,97.9 L569.3,97.9 L574.4,97.9 L579.4,97.9 L584.5,89.9
		L589.6,89.9 L594.7,81.9 L599.8,81.9 L604.8,81.9 L609.9,57.8 L615.0,25.8  '/></g>
	</g>
	<g id="gnuplot_plot_2" ><title>score p10=2731008</title>
<g fill="none" color="black" stroke="currentColor" stroke-width="1.00" stroke-linecap="butt" stroke-linejoin="miter">
	<g transform="translate(304.7,475.9)" stroke="none" fill="black" font-family="Arial" font-size="12.00"  text-anchor="end">
		<text><tspan font-family="Arial" >score p10=2731008</tspan></text>
	</g>
</g>
<g fill="none" color="black" stroke="currentColor" stroke-width="1.00" stroke-linecap="butt" stroke-linejoin="miter">
	<path stroke='rgb(  0, 158, 115)'  d='M313.0,472.0 L355.2,472.0  '/></g>
	</g>
	<g id="gnuplot_plot_3" ><title>score median=4096000</title>
<g fill="none" color="black" stroke="currentColor" stroke-width="1.00" stroke-linecap="butt" stroke-linejoin="miter">
	<g transform="translate(529.5,457.9)" stroke="none" fill="black" font-family="Arial" font-size="12.00"  text-anchor="end">
		<text><tspan font-family="Arial" >score median=4096000</tspan></text>
	</g>
</g>
<g fill="none" color="black" stroke="currentColor" stroke-width="1.00" stroke-linecap="butt" stroke-linejoin="miter">
	<path stroke='rgb( 86, 180, 233)'  d='M537.8,454.0 L580.0,454.0  '/></g>
	</g>
<g fill="none" color="#FFFFFF" stroke="rgb( 86, 180, 233)" stroke-width="2.00" stroke-linecap="butt" stroke-linejoin="miter">
</g>
<g fill="none" color="black" stroke="currentColor" stroke-width="2.00" stroke-linecap="butt" stroke-linejoin="miter">
</g>
<g fill="none" color="black" stroke="black" stroke-width="1.00" stroke-linecap="butt" stroke-linejoin="miter">
</g>
<g fill="none" color="black" stroke="currentColor" stroke-width="1.00" stroke-linecap="butt" stroke-linejoin="miter">
	<path stroke='black'  d='M112.0,18.1 L112.0,418.0 L615.0,418.0 L615.0,18.1 L112.0,18.1 Z  '/></g>
<g fill="none" color="black" stroke="currentColor" stroke-width="1.00" stroke-linecap="butt" stroke-linejoin="miter">
</g>
</g>
</svg>
